assets/imgs/quote.svg

<svg fill="none" height="21" viewBox="0 0 27 21" width="27" xmlns="http://www.w3.org/2000/svg"><path d="m7.82591.463998c-4.34 3.100002-7.067996 7.502002-7.067996 12.586002 0 4.526 2.975996 7.192 6.323996 7.192 3.09999 0 5.70399-2.604 5.70399-5.766 0-3.038-2.17-5.084-4.77399-5.084-.62 0-1.178.124-1.426.186.62-2.232 3.224-4.898 5.20799-5.89zm13.94999 0c-4.34 3.100002-7.068 7.502002-7.068 12.586002 0 4.526 3.038 7.192 6.386 7.192 3.038 0 5.642-2.604 5.642-5.766 0-3.038-2.108-5.084-4.774-5.084-.62 0-1.178.124-1.426.186.682-2.232 3.224-4.898 5.208-5.89z" fill="#555"/></svg>

<svg width="27" height="21" viewBox="0 0 27 21" fill="none" xmlns="http://www.w3.org/2000/svg">
<path d="M7.82591 0.463998C3.48591 3.564 0.757914 7.966 0.757914 13.05C0.757914 17.576 3.73391 20.242 7.08191 20.242C10.1819 20.242 12.7859 17.638 12.7859 14.476C12.7859 11.438 10.6159 9.392 8.01191 9.392C7.39191 9.392 6.83391 9.516 6.58591 9.578C7.20591 7.346 9.80991 4.68 11.7939 3.688L7.82591 0.463998ZM21.7759 0.463998C17.4359 3.564 14.7079 7.966 14.7079 13.05C14.7079 17.576 17.7459 20.242 21.0939 20.242C24.1319 20.242 26.7359 17.638 26.7359 14.476C26.7359 11.438 24.6279 9.392 21.9619 9.392C21.3419 9.392 20.7839 9.516 20.5359 9.578C21.2179 7.346 23.7599 4.68 25.7439 3.688L21.7759 0.463998Z" fill="#555555"/>
</svg>
